app/assets/v2/images/how-it-works/icons/cooperative.svg

<svg height="31" width="477" xmlns="http://www.w3.org/2000/svg"><g fill="none" fill-rule="evenodd"><g fill="#3e00ff" fill-rule="nonzero" stroke="#3e00ff"><g><path d="m250.5 30c-7.995 0-14.5-6.505-14.5-14.5s6.505-14.5 14.5-14.5 14.5 6.505 14.5 14.5-6.505 14.5-14.5 14.5zm0-28c-7.444 0-13.5 6.056-13.5 13.5s6.056 13.5 13.5 13.5 13.5-6.056 13.5-13.5-6.056-13.5-13.5-13.5z"/><path d="m258 24a.5.5 0 0 1 -.5-.5c0-4.136-3.14-7.5-7-7.5s-7 3.364-7 7.5a.5.5 0 0 1 -1 0c0-4.687 3.589-8.5 8-8.5s8 3.813 8 8.5a.5.5 0 0 1 -.5.5zm-7.5-11c-2.206 0-4-1.794-4-4s1.794-4 4-4 4 1.794 4 4-1.794 4-4 4zm0-7c-1.654 0-3 1.346-3 3s1.346 3 3 3 3-1.346 3-3-1.346-3-3-3z"/></g><g><path d="m274.5 30c-7.995 0-14.5-6.505-14.5-14.5s6.505-14.5 14.5-14.5 14.5 6.505 14.5 14.5-6.505 14.5-14.5 14.5zm0-28c-7.444 0-13.5 6.056-13.5 13.5s6.056 13.5 13.5 13.5 13.5-6.056 13.5-13.5-6.056-13.5-13.5-13.5z"/><path d="m282 24a.5.5 0 0 1 -.5-.5c0-4.136-3.14-7.5-7-7.5s-7 3.364-7 7.5a.5.5 0 0 1 -1 0c0-4.687 3.589-8.5 8-8.5s8 3.813 8 8.5a.5.5 0 0 1 -.5.5zm-7.5-11c-2.206 0-4-1.794-4-4s1.794-4 4-4 4 1.794 4 4-1.794 4-4 4zm0-7c-1.654 0-3 1.346-3 3s1.346 3 3 3 3-1.346 3-3-1.346-3-3-3z"/></g><g><path d="m15.5 30c-7.995 0-14.5-6.505-14.5-14.5s6.505-14.5 14.5-14.5 14.5 6.505 14.5 14.5-6.505 14.5-14.5 14.5zm0-28c-7.444 0-13.5 6.056-13.5 13.5s6.056 13.5 13.5 13.5 13.5-6.056 13.5-13.5-6.056-13.5-13.5-13.5z"/><path d="m23 24a.5.5 0 0 1 -.5-.5c0-4.136-3.14-7.5-7-7.5s-7 3.364-7 7.5a.5.5 0 0 1 -1 0c0-4.687 3.589-8.5 8-8.5s8 3.813 8 8.5a.5.5 0 0 1 -.5.5zm-7.5-11c-2.206 0-4-1.794-4-4s1.794-4 4-4 4 1.794 4 4-1.794 4-4 4zm0-7c-1.654 0-3 1.346-3 3s1.346 3 3 3 3-1.346 3-3-1.346-3-3-3z"/></g><g><path d="m39.5 30c-7.995 0-14.5-6.505-14.5-14.5s6.505-14.5 14.5-14.5 14.5 6.505 14.5 14.5-6.505 14.5-14.5 14.5zm0-28c-7.444 0-13.5 6.056-13.5 13.5s6.056 13.5 13.5 13.5 13.5-6.056 13.5-13.5-6.056-13.5-13.5-13.5z"/><path d="m47 24a.5.5 0 0 1 -.5-.5c0-4.136-3.14-7.5-7-7.5s-7 3.364-7 7.5a.5.5 0 0 1 -1 0c0-4.687 3.589-8.5 8-8.5s8 3.813 8 8.5a.5.5 0 0 1 -.5.5zm-7.5-11c-2.206 0-4-1.794-4-4s1.794-4 4-4 4 1.794 4 4-1.794 4-4 4zm0-7c-1.654 0-3 1.346-3 3s1.346 3 3 3 3-1.346 3-3-1.346-3-3-3z"/></g></g><text fill="#4a4a4a" font-family="Muli" font-size="14" font-style="italic" letter-spacing=".179" transform="translate(-185 -3914)"><tspan x="247" y="3934">Multiple Contributors</tspan></text><g fill="#3e00ff" fill-rule="nonzero" stroke="#3e00ff"><path d="m250.5 30c-7.995 0-14.5-6.505-14.5-14.5s6.505-14.5 14.5-14.5 14.5 6.505 14.5 14.5-6.505 14.5-14.5 14.5zm0-28c-7.444 0-13.5 6.056-13.5 13.5s6.056 13.5 13.5 13.5 13.5-6.056 13.5-13.5-6.056-13.5-13.5-13.5z"/><path d="m258 24a.5.5 0 0 1 -.5-.5c0-4.136-3.14-7.5-7-7.5s-7 3.364-7 7.5a.5.5 0 0 1 -1 0c0-4.687 3.589-8.5 8-8.5s8 3.813 8 8.5a.5.5 0 0 1 -.5.5zm-7.5-11c-2.206 0-4-1.794-4-4s1.794-4 4-4 4 1.794 4 4-1.794 4-4 4zm0-7c-1.654 0-3 1.346-3 3s1.346 3 3 3 3-1.346 3-3-1.346-3-3-3z"/></g><text fill="#4a4a4a" font-family="Muli" font-size="14" font-style="italic" letter-spacing=".179" transform="translate(-185 -3914)"><tspan x="485" y="3934">Multiple Contributors Paid</tspan></text></g></svg>

<svg width="477" height="31" xmlns="http://www.w3.org/2000/svg"><g fill="none" fill-rule="evenodd"><g fill="#3E00FF" fill-rule="nonzero" stroke="#3E00FF"><path d="M250.5 30c-7.995 0-14.5-6.505-14.5-14.5S242.505 1 250.5 1 265 7.505 265 15.5 258.495 30 250.5 30zm0-28C243.056 2 237 8.056 237 15.5S243.056 29 250.5 29 264 22.944 264 15.5 257.944 2 250.5 2z"/><path d="M258 24a.5.5 0 0 1-.5-.5c0-4.136-3.14-7.5-7-7.5s-7 3.364-7 7.5a.5.5 0 0 1-1 0c0-4.687 3.589-8.5 8-8.5s8 3.813 8 8.5a.5.5 0 0 1-.5.5zM250.5 13c-2.206 0-4-1.794-4-4s1.794-4 4-4 4 1.794 4 4-1.794 4-4 4zm0-7c-1.654 0-3 1.346-3 3s1.346 3 3 3 3-1.346 3-3-1.346-3-3-3z"/></g><g fill="#3E00FF" fill-rule="nonzero" stroke="#3E00FF"><path d="M274.5 30c-7.995 0-14.5-6.505-14.5-14.5S266.505 1 274.5 1 289 7.505 289 15.5 282.495 30 274.5 30zm0-28C267.056 2 261 8.056 261 15.5S267.056 29 274.5 29 288 22.944 288 15.5 281.944 2 274.5 2z"/><path d="M282 24a.5.5 0 0 1-.5-.5c0-4.136-3.14-7.5-7-7.5s-7 3.364-7 7.5a.5.5 0 0 1-1 0c0-4.687 3.589-8.5 8-8.5s8 3.813 8 8.5a.5.5 0 0 1-.5.5zM274.5 13c-2.206 0-4-1.794-4-4s1.794-4 4-4 4 1.794 4 4-1.794 4-4 4zm0-7c-1.654 0-3 1.346-3 3s1.346 3 3 3 3-1.346 3-3-1.346-3-3-3z"/></g><g fill="#3E00FF" fill-rule="nonzero" stroke="#3E00FF"><path d="M15.5 30C7.505 30 1 23.495 1 15.5S7.505 1 15.5 1 30 7.505 30 15.5 23.495 30 15.5 30zm0-28C8.056 2 2 8.056 2 15.5S8.056 29 15.5 29 29 22.944 29 15.5 22.944 2 15.5 2z"/><path d="M23 24a.5.5 0 0 1-.5-.5c0-4.136-3.14-7.5-7-7.5s-7 3.364-7 7.5a.5.5 0 0 1-1 0c0-4.687 3.589-8.5 8-8.5s8 3.813 8 8.5a.5.5 0 0 1-.5.5zM15.5 13c-2.206 0-4-1.794-4-4s1.794-4 4-4 4 1.794 4 4-1.794 4-4 4zm0-7c-1.654 0-3 1.346-3 3s1.346 3 3 3 3-1.346 3-3-1.346-3-3-3z"/></g><g fill="#3E00FF" fill-rule="nonzero" stroke="#3E00FF"><path d="M39.5 30C31.505 30 25 23.495 25 15.5S31.505 1 39.5 1 54 7.505 54 15.5 47.495 30 39.5 30zm0-28C32.056 2 26 8.056 26 15.5S32.056 29 39.5 29 53 22.944 53 15.5 46.944 2 39.5 2z"/><path d="M47 24a.5.5 0 0 1-.5-.5c0-4.136-3.14-7.5-7-7.5s-7 3.364-7 7.5a.5.5 0 0 1-1 0c0-4.687 3.589-8.5 8-8.5s8 3.813 8 8.5a.5.5 0 0 1-.5.5zM39.5 13c-2.206 0-4-1.794-4-4s1.794-4 4-4 4 1.794 4 4-1.794 4-4 4zm0-7c-1.654 0-3 1.346-3 3s1.346 3 3 3 3-1.346 3-3-1.346-3-3-3z"/></g><text font-family="Muli" font-size="14" font-style="italic" letter-spacing=".179" fill="#4A4A4A" transform="translate(-185 -3914)"><tspan x="247" y="3934">Multiple Contributors</tspan></text><g fill="#3E00FF" fill-rule="nonzero" stroke="#3E00FF"><path d="M250.5 30c-7.995 0-14.5-6.505-14.5-14.5S242.505 1 250.5 1 265 7.505 265 15.5 258.495 30 250.5 30zm0-28C243.056 2 237 8.056 237 15.5S243.056 29 250.5 29 264 22.944 264 15.5 257.944 2 250.5 2z"/><path d="M258 24a.5.5 0 0 1-.5-.5c0-4.136-3.14-7.5-7-7.5s-7 3.364-7 7.5a.5.5 0 0 1-1 0c0-4.687 3.589-8.5 8-8.5s8 3.813 8 8.5a.5.5 0 0 1-.5.5zM250.5 13c-2.206 0-4-1.794-4-4s1.794-4 4-4 4 1.794 4 4-1.794 4-4 4zm0-7c-1.654 0-3 1.346-3 3s1.346 3 3 3 3-1.346 3-3-1.346-3-3-3z"/></g><text font-family="Muli" font-size="14" font-style="italic" letter-spacing=".179" fill="#4A4A4A" transform="translate(-185 -3914)"><tspan x="485" y="3934">Multiple Contributors Paid</tspan></text></g></svg>
